X: 3
T:Ballinasloe Jig
R:Jig
C:Trad
S:Bridget Delaney, Athy, Co. Kildare, Ireland
N:The Lilting Banshee, Boholla Jig #1,The Miller of Glenmire, Ryan's
M:6/8
L:1/8
Q:300
K:ADor
"Am"EAA EAA|"Em"BAB G3 A|"Em"Bee edB|"G"dBA GED|
"Am"EAA EAA|"Em"BAB G>A|"Em"Bee edB|"D"dBA A3 d:|
"D"eaa age|"G"dBA G3 A|"Em"Bee edB|"G"def gfg|
"Am"eaa age|"G"dBA G3 A|"Em"Bee edB|"D"dBA A3 d:|
